X: 4
T: Splendid Isolation
R: reel
M: 4/4
L: 1/8
K: Amin
dcBd cAA^G | A2 (3EF^G ABcA | A2 BG G2 cd |eaag a2 ba |
ge e2 aged | c3d B3d |dedB cA (3Bcd |1 eAA^G A4 :|2 cAA^G A2 cd ||
|:eAcA cedB | (3ABc BG A2 EF | G3A GD D2 | GFGA B2 dB |
ABcd ed d2 | ecBA BG G2 | EFGE ABcd | ea^gb a2 cd :|
|: ea a2 a2 ^ga |eaa^g e2 dA | de e2 dgfg | agdB G2 cd |
e3c d3B | cBcA BGED |AEAB cedB | ^deGB A2 c=d :|


Tune 200	Setting 22094

